public/svgs/steps/step4-disabled.svg

<svg width="25" height="24" viewBox="0 0 25 24" fill="none" xmlns="http://www.w3.org/2000/svg">
<g clip-path="url(#clip0_438_8142)">
<path d="M24.168 12C24.168 10.48 22.936 9.244 21.412 9.244H18.816L20.652 7.408C21.728 6.332 21.728 4.588 20.652 3.512C19.576 2.436 17.832 2.436 16.756 3.512L14.92 5.348V2.756C14.92 1.236 13.688 0 12.164 0C10.64 0 9.40797 1.232 9.40797 2.756V5.352L7.57197 3.516C6.49597 2.44 4.75197 2.44 3.67597 3.516C2.59997 4.592 2.59997 6.336 3.67597 7.412L5.51197 9.248H2.92397C1.40397 9.248 0.167969 10.48 0.167969 12.004C0.167969 13.528 1.39997 14.76 2.92397 14.76H5.51997L3.68397 16.596C2.60797 17.672 2.60797 19.416 3.68397 20.492C4.75997 21.568 6.50397 21.568 7.57997 20.492L9.41597 18.656V21.252C9.41597 22.772 10.648 24.008 12.172 24.008C13.696 24.008 14.928 22.776 14.928 21.252V18.656L16.764 20.492C17.84 21.568 19.584 21.568 20.66 20.492C21.736 19.416 21.736 17.672 20.66 16.596L18.824 14.76H21.42C22.94 14.76 24.176 13.528 24.176 12.004L24.168 12Z" fill="#F1F3F5"/>
<path d="M9.16797 13.2707L12.5492 8H14.6376V13.2486H15.6542V14.5856H14.6376V16H13.0575V14.5856H9.16797V13.2707ZM13.0796 13.2486V9.8232H13.0022L10.8475 13.1823V13.2486H13.0796Z" fill="#CCD2D8"/>
</g>
<defs>
<clipPath id="clip0_438_8142">
<rect width="24" height="24" fill="white" transform="translate(0.167969)"/>
</clipPath>
</defs>
</svg>

<svg width="25" height="24" fill="none" xmlns="http://www.w3.org/2000/svg"><g clip-path="url(#a)"><path d="M24.168 12a2.756 2.756 0 0 0-2.756-2.756h-2.596l1.836-1.836a2.755 2.755 0 1 0-3.896-3.896L14.92 5.348V2.756a2.756 2.756 0 0 0-5.512 0v2.596L7.572 3.516a2.755 2.755 0 1 0-3.896 3.896l1.836 1.836H2.924a2.756 2.756 0 0 0 0 5.512H5.52l-1.836 1.836a2.755 2.755 0 1 0 3.896 3.896l1.836-1.836v2.596a2.756 2.756 0 0 0 5.512 0v-2.596l1.836 1.836a2.755 2.755 0 1 0 3.896-3.896l-1.836-1.836h2.596a2.756 2.756 0 0 0 2.756-2.756L24.168 12Z" fill="#F1F3F5"/><path d="M9.168 13.27 12.549 8h2.089v5.249h1.016v1.337h-1.016V16h-1.58v-1.414h-3.89V13.27Zm3.912-.021V9.823h-.078l-2.155 3.36v.066h2.233Z" fill="#CCD2D8"/></g><defs><clipPath id="a"><path fill="#fff" transform="translate(.168)" d="M0 0h24v24H0z"/></clipPath></defs></svg>
